Sites/UniverseChariot/app/img/dest/reviews/star.svg

<svg width="25" height="25" viewBox="0 0 25 25" fill="none" xmlns="http://www.w3.org/2000/svg">
<path d="M9.30194 2.50832L7.75671 3.17056C6.94493 2.48867 6.4537 2.18905 5.45113 1.94419C3.91589 3.22955 3.152 3.99952 2.09086 5.5252C2.2644 6.54245 2.53891 6.98816 3.17007 7.68361L2.67952 9.2779C1.53763 9.37087 0.980469 9.51096 0.153195 9.94014C-0.0362793 11.9899 -0.0653349 13.1392 0.153195 15.189C1.14659 15.6851 1.69753 15.7112 2.67952 15.7286L3.17007 17.2739C2.56744 17.9262 2.31218 18.4714 1.91917 19.5794L5.76998 23.0623C6.61435 22.8555 7.06509 22.6651 7.75671 21.9586L9.30194 22.4982C9.30821 23.4111 9.46215 23.9643 9.91512 25H15.2376C15.7569 24.0208 15.8258 23.4734 15.8017 22.4982L17.3469 21.9586C18.1547 22.4851 18.5522 22.8071 19.9223 23.0623L23.3071 19.5794C23.0336 18.5244 22.7461 18.0339 22.0807 17.2739L22.792 15.7286C23.8265 15.6408 24.3409 15.5448 24.9995 15.189V9.94014C24.3145 9.51643 23.8407 9.3625 22.792 9.2779L22.0807 7.68361C22.7214 7.09637 22.9825 6.65272 23.3071 5.69689C22.0858 4.21352 21.297 3.3911 19.6525 1.94419C18.6051 2.15238 18.1127 2.44368 17.3469 3.17056L15.8017 2.50832C15.6508 1.21303 15.5175 0.757402 15.2376 0.178213C13.0269 -0.0491084 11.8497 -0.0694819 9.91512 0.178213C9.54952 1.03029 9.41777 1.54113 9.30194 2.50832Z" fill="#F9A100"/>
<circle cx="12.4845" cy="12.4844" r="4.2923" fill="white"/>
</svg>

<svg width="25" height="25" fill="none" xmlns="http://www.w3.org/2000/svg"><path d="M9.302 2.508l-1.545.663c-.812-.682-1.303-.982-2.306-1.227C3.916 3.23 3.152 4 2.091 5.525c.173 1.017.448 1.463 1.08 2.159L2.68 9.278C1.538 9.37.98 9.51.153 9.94c-.19 2.05-.218 3.2 0 5.249.994.496 1.545.522 2.527.54l.49 1.545c-.603.652-.858 1.197-1.25 2.305l3.85 3.483c.844-.207 1.295-.397 1.987-1.103l1.545.54c.006.912.16 1.465.613 2.501h5.323c.519-.98.588-1.527.564-2.502l1.545-.54c.808.527 1.205.85 2.575 1.104l3.385-3.483c-.273-1.055-.56-1.545-1.226-2.305l.711-1.545c1.034-.088 1.549-.184 2.207-.54V9.94c-.684-.424-1.158-.577-2.207-.662l-.711-1.594c.64-.588.902-1.031 1.226-1.987-1.221-1.483-2.01-2.306-3.654-3.753-1.048.208-1.54.5-2.306 1.227l-1.545-.663c-.151-1.295-.284-1.75-.564-2.33-2.211-.227-3.388-.247-5.323 0-.365.852-.497 1.363-.613 2.33z" fill="#F9A100"/><circle cx="12.485" cy="12.484" r="4.292" fill="#fff"/></svg>
